X: 27856
T: Mother's Delight
R: reel
M: 4/4
K: Edorian
|:~G3F GFEF|GFGB AFD2|Beed efgf|efde BcdB|
efed ~B3c|dcdA FDD2|Beed ~B3c|dBAF GEEF:|
|:GBeB G~E3|FAdA FDD2|GBeB G~E3|FEDF ~E3F|
GBeB G~E3|FAdA FDD2|~G3F GFEG|FEDF ~E3F:|

